src/lib/packages/icons/src/assets/filled/face-dizzy.svg

<svg width="24" height="24" viewBox="0 0 24 24" fill="none" xmlns="http://www.w3.org/2000/svg">
<path d="M12.02 2C6.50002 2 2.02002 6.48 2.02002 12C2.02002 17.52 6.50002 22 12.02 22C17.54 22 22.02 17.52 22.02 12C22.02 6.48 17.54 2 12.02 2ZM9 11.06L8.53003 11.53C8.38003 11.68 8.19 11.75 8 11.75C7.81 11.75 7.61997 11.68 7.46997 11.53C7.17997 11.24 7.17997 10.76 7.46997 10.47L7.94 10L7.46997 9.53C7.17997 9.24 7.17997 8.76 7.46997 8.47C7.75997 8.18 8.24003 8.18 8.53003 8.47L9 8.94L9.46997 8.47C9.75997 8.18 10.24 8.18 10.53 8.47C10.82 8.76 10.82 9.24 10.53 9.53L10.06 10L10.53 10.47C10.82 10.76 10.82 11.24 10.53 11.53C10.38 11.68 10.19 11.75 10 11.75C9.81 11.75 9.61997 11.68 9.46997 11.53L9 11.06ZM12 18C10.9 18 10 17.1 10 16C10 14.9 10.9 14 12 14C13.1 14 14 14.9 14 16C14 17.1 13.1 18 12 18ZM16.53 10.47C16.82 10.76 16.82 11.24 16.53 11.53C16.38 11.68 16.19 11.75 16 11.75C15.81 11.75 15.62 11.68 15.47 11.53L15 11.06L14.53 11.53C14.38 11.68 14.19 11.75 14 11.75C13.81 11.75 13.62 11.68 13.47 11.53C13.18 11.24 13.18 10.76 13.47 10.47L13.94 10L13.47 9.53C13.18 9.24 13.18 8.76 13.47 8.47C13.76 8.18 14.24 8.18 14.53 8.47L15 8.94L15.47 8.47C15.76 8.18 16.24 8.18 16.53 8.47C16.82 8.76 16.82 9.24 16.53 9.53L16.06 10L16.53 10.47Z" fill="currentColor"/>
</svg>

<svg xmlns="http://www.w3.org/2000/svg" width="24" height="24" fill="none"><path fill="currentColor" d="M12.02 2c-5.52 0-10 4.48-10 10s4.48 10 10 10 10-4.48 10-10-4.48-10-10-10ZM9 11.06l-.47.47c-.15.15-.34.22-.53.22s-.38-.07-.53-.22a.754.754 0 0 1 0-1.06l.47-.47-.47-.47a.754.754 0 0 1 0-1.06c.29-.29.77-.29 1.06 0l.47.47.47-.47c.29-.29.77-.29 1.06 0 .29.29.29.77 0 1.06l-.47.47.47.47c.29.29.29.77 0 1.06-.15.15-.34.22-.53.22s-.38-.07-.53-.22L9 11.06ZM12 18c-1.1 0-2-.9-2-2s.9-2 2-2 2 .9 2 2-.9 2-2 2Zm4.53-7.53c.29.29.29.77 0 1.06-.15.15-.34.22-.53.22s-.38-.07-.53-.22l-.47-.47-.47.47c-.15.15-.34.22-.53.22s-.38-.07-.53-.22a.754.754 0 0 1 0-1.06l.47-.47-.47-.47a.754.754 0 0 1 0-1.06c.29-.29.77-.29 1.06 0l.47.47.47-.47c.29-.29.77-.29 1.06 0 .29.29.29.77 0 1.06l-.47.47.47.47Z"/></svg>
